X:1
T:Mason's Apron
L:1/8
M:4/4
I:linebreak $
K:A
V:1 treble
V:1
 ed |:"A" c2 A2 ABAF | EFAB cABc |"Bm" dB B2 BcBA |"E" GABc defg |$
 "A"aA A2 ABAF | EFAB cABc |"D" dcde fgaf |"E"  ec B2 "A"A2 ed ::$
 |:"A"cAeA fAeA | cAeA fedc |"Bm" dBfB gBfB | dBfB gfed |$
 "A"cAeA fAeA | cAeA fedc |"D"  dcde fgaf |"E" ec B2 "A"A2 ed |]
